X: 2
T: Thunderhead
R: jig
M: 6/8
L: 1/8
K: Bmin
~B3 fBB|eBB dBA|~B3 fgf|edB AGc|~B3 fBB|eBB def|gfe fdB|ADF ABc:|||:dGG AGE|DEG ~F3|EFF EFF|GFE~F3|dGG AGE|DEG FGA|1BdB ceg|f/2g/2af gfe:|2Bde fgf|edB AGc||~B3 fBBf|eBB dBBA|~B3 fggf|edB AGGc|~B3 fBBf|eBB dBef|gfe fddB|1ADF ABBc:|2ADF ABc2|||:dGG AGGE|DEG EF~F2|EFF EF~F2|GFE EF~F2|dGG AGGE|DEG EF~F2|1BdB ceeg|f/2g/2af g3e:|2M:6/8 Bde fgf|M:7/8 edB AGGc||


Tune 732	Setting 22188

